public/formular-icons/english/lower-u.svg

<svg style="vertical-align:-.025ex" xmlns="http://www.w3.org/2000/svg" width="1.294ex" height="1.025ex" viewBox="0 -442 572 453" xmlns:xlink="http://www.w3.org/1999/xlink"><defs><path id="a" d="M21 287q0 8 9 31t25 52 44 50 59 22q46 0 69-25t23-59q0-18-34-112t-34-141q0-43 14-60t42-18 53 17 37 34l11 17q2 4 38 152 30 120 36 140t14 29q17 15 36 15 17 0 25-10t8-19L420 84q-1-5-1-16 0-25 7-33t21-9q22 3 35 31t30 88q2 8 20 8 19 0 19-9-1-5-2-14t-9-32-17-43-25-38-36-25q-8-2-24-2-66 0-91 56-2-1-11-10t-18-15-22-15-29-12-34-5q-44 0-78 18-52 31-52 106 0 57 35 149t35 117v14q0 3-4 7t-11 4h-4q-23 0-42-19t-30-41-17-42-8-22q-2-2-16-2H27q-6 6-6 9Z"/></defs><g stroke="currentColor" fill="currentColor" stroke-width="0"><use data-c="1D462" xlink:href="#a" transform="scale(1 -1)"/></g></svg>

<svg style="vertical-align: -0.025ex" xmlns="http://www.w3.org/2000/svg" width="1.294ex" height="1.025ex" role="img" focusable="false" viewBox="0 -442 572 453" xmlns:xlink="http://www.w3.org/1999/xlink"><defs><path id="MJX-73-TEX-I-1D462" d="M21 287Q21 295 30 318T55 370T99 420T158 442Q204 442 227 417T250 358Q250 340 216 246T182 105Q182 62 196 45T238 27T291 44T328 78L339 95Q341 99 377 247Q407 367 413 387T427 416Q444 431 463 431Q480 431 488 421T496 402L420 84Q419 79 419 68Q419 43 426 35T447 26Q469 29 482 57T512 145Q514 153 532 153Q551 153 551 144Q550 139 549 130T540 98T523 55T498 17T462 -8Q454 -10 438 -10Q372 -10 347 46Q345 45 336 36T318 21T296 6T267 -6T233 -11Q189 -11 155 7Q103 38 103 113Q103 170 138 262T173 379Q173 380 173 381Q173 390 173 393T169 400T158 404H154Q131 404 112 385T82 344T65 302T57 280Q55 278 41 278H27Q21 284 21 287Z"></path></defs><g stroke="currentColor" fill="currentColor" stroke-width="0" transform="scale(1,-1)"><g data-mml-node="math"><g data-mml-node="mi"><use data-c="1D462" xlink:href="#MJX-73-TEX-I-1D462"></use></g></g></g></svg>
